X:18
T: Tiszán innen, Dunán túl
K: F
M: 4/4
L: 1/4
d<d gg | f<d g2 | 
a>e f<g | a<g d<g | f2 c2 | d4 | 
g>=B c<d | =B G d c2
B< G dc  | B<G dc | B2 F2 | G4 | 

